X:94
T:Foxhunter’s Gig. JJo.094
S:J.Jones MS,1801,N.Shrops.
A:N Shropshire
Z:Neil Brookes 2006
M:6/8
L:1/8
Q:3/8=110
K:F
a|a2gg2f|f2gg2f/g/|a>ba gfg|f2zz2a|!
a2a ac’a|ac’a ac’a|g2g gbg|gbg gbg|!
a>ba abc’|ggg g2z|abc’ c’ba|g2zgz::!
g|g2a g2c|gggg2z|abc’ c’ba|g2 f/g/|!
aff Tc’gg|aff Tbgf|ac’c’ gbb|ac’c’ gbb|!
a2gf2f|f2gg2f/g/|a>ba gfg|”f2 in MS”f4z:|

